imagens/header-carrinho.svg

<svg xmlns="http://www.w3.org/2000/svg" xmlns:xlink="http://www.w3.org/1999/xlink" width="500" zoomAndPan="magnify" viewBox="0 0 375 374.999991" height="500" preserveAspectRatio="xMidYMid meet" version="1.0"><defs><clipPath id="5c2b15d517"><path d="M 131.25 131.25 L 243.75 131.25 L 243.75 243.75 L 131.25 243.75 Z M 131.25 131.25 " clip-rule="nonzero"/></clipPath></defs><rect x="-37.5" width="450" fill="#ffffff" y="-37.499999" height="449.999989" fill-opacity="1"/><rect x="-37.5" width="450" fill="#ffffff" y="-37.499999" height="449.999989" fill-opacity="1"/><g clip-path="url(#5c2b15d517)"><path fill="#ffffff" d="M 131.25 131.25 L 243.75 131.25 L 243.75 243.75 L 131.25 243.75 Z M 131.25 131.25 " fill-opacity="1" fill-rule="nonzero"/></g><path fill="#f9943b" d="M 374.90625 187.453125 C 374.90625 190.519531 374.832031 193.585938 374.679688 196.652344 C 374.53125 199.714844 374.304688 202.773438 374.003906 205.828125 C 373.703125 208.878906 373.328125 211.925781 372.878906 214.957031 C 372.429688 217.992188 371.902344 221.015625 371.304688 224.023438 C 370.707031 227.03125 370.035156 230.023438 369.289062 233 C 368.542969 235.976562 367.726562 238.933594 366.835938 241.867188 C 365.945312 244.804688 364.984375 247.714844 363.949219 250.605469 C 362.914062 253.492188 361.8125 256.355469 360.636719 259.1875 C 359.464844 262.023438 358.222656 264.828125 356.910156 267.601562 C 355.597656 270.375 354.21875 273.113281 352.773438 275.820312 C 351.328125 278.523438 349.816406 281.191406 348.238281 283.824219 C 346.660156 286.457031 345.019531 289.046875 343.316406 291.597656 C 341.609375 294.148438 339.84375 296.65625 338.019531 299.121094 C 336.191406 301.582031 334.304688 304 332.355469 306.371094 C 330.410156 308.746094 328.40625 311.066406 326.347656 313.339844 C 324.289062 315.613281 322.171875 317.835938 320.003906 320.003906 C 317.835938 322.171875 315.613281 324.289062 313.339844 326.347656 C 311.066406 328.40625 308.746094 330.410156 306.371094 332.355469 C 304 334.304688 301.582031 336.191406 299.121094 338.019531 C 296.65625 339.84375 294.148438 341.609375 291.597656 343.316406 C 289.046875 345.019531 286.457031 346.660156 283.824219 348.238281 C 281.191406 349.816406 278.523438 351.328125 275.820312 352.773438 C 273.113281 354.21875 270.375 355.597656 267.601562 356.910156 C 264.828125 358.222656 262.023438 359.464844 259.1875 360.636719 C 256.355469 361.8125 253.492188 362.914062 250.605469 363.949219 C 247.714844 364.984375 244.804688 365.945312 241.867188 366.835938 C 238.933594 367.726562 235.976562 368.542969 233 369.289062 C 230.023438 370.035156 227.03125 370.707031 224.023438 371.304688 C 221.015625 371.902344 217.992188 372.429688 214.957031 372.878906 C 211.925781 373.328125 208.878906 373.703125 205.828125 374.003906 C 202.773438 374.304688 199.714844 374.53125 196.652344 374.679688 C 193.585938 374.832031 190.519531 374.90625 187.453125 374.90625 C 184.386719 374.90625 181.320312 374.832031 178.253906 374.679688 C 175.191406 374.53125 172.132812 374.304688 169.078125 374.003906 C 166.027344 373.703125 162.984375 373.328125 159.949219 372.878906 C 156.914062 372.429688 153.890625 371.902344 150.882812 371.304688 C 147.875 370.707031 144.882812 370.035156 141.90625 369.289062 C 138.929688 368.542969 135.972656 367.726562 133.039062 366.835938 C 130.101562 365.945312 127.191406 364.984375 124.300781 363.949219 C 121.414062 362.914062 118.550781 361.8125 115.71875 360.636719 C 112.882812 359.464844 110.082031 358.222656 107.308594 356.910156 C 104.535156 355.597656 101.792969 354.21875 99.089844 352.773438 C 96.382812 351.328125 93.714844 349.816406 91.082031 348.238281 C 88.453125 346.660156 85.859375 345.019531 83.308594 343.316406 C 80.757812 341.609375 78.25 339.84375 75.789062 338.019531 C 73.324219 336.191406 70.90625 334.304688 68.535156 332.355469 C 66.164062 330.410156 63.839844 328.40625 61.566406 326.347656 C 59.292969 324.289062 57.074219 322.171875 54.902344 320.003906 C 52.734375 317.835938 50.621094 315.613281 48.558594 313.339844 C 46.5 311.066406 44.496094 308.746094 42.550781 306.371094 C 40.605469 304 38.71875 301.582031 36.890625 299.121094 C 35.0625 296.65625 33.296875 294.148438 31.589844 291.597656 C 29.886719 289.046875 28.246094 286.457031 26.667969 283.824219 C 25.09375 281.191406 23.582031 278.523438 22.132812 275.820312 C 20.6875 273.113281 19.308594 270.375 17.996094 267.601562 C 16.6875 264.828125 15.441406 262.023438 14.269531 259.1875 C 13.09375 256.355469 11.992188 253.492188 10.957031 250.605469 C 9.925781 247.714844 8.960938 244.804688 8.070312 241.867188 C 7.179688 238.933594 6.363281 235.976562 5.617188 233 C 4.871094 230.023438 4.199219 227.03125 3.601562 224.023438 C 3.003906 221.015625 2.480469 217.992188 2.027344 214.957031 C 1.578125 211.925781 1.203125 208.878906 0.902344 205.828125 C 0.601562 202.773438 0.375 199.714844 0.226562 196.652344 C 0.0742188 193.585938 0 190.519531 0 187.453125 C 0 184.386719 0.0742188 181.320312 0.226562 178.253906 C 0.375 175.191406 0.601562 172.132812 0.902344 169.078125 C 1.203125 166.027344 1.578125 162.984375 2.027344 159.949219 C 2.480469 156.914062 3.003906 153.890625 3.601562 150.882812 C 4.199219 147.875 4.871094 144.882812 5.617188 141.90625 C 6.363281 138.929688 7.179688 135.972656 8.070312 133.039062 C 8.960938 130.101562 9.925781 127.191406 10.957031 124.300781 C 11.992188 121.414062 13.09375 118.550781 14.269531 115.71875 C 15.441406 112.882812 16.6875 110.082031 17.996094 107.308594 C 19.308594 104.535156 20.6875 101.792969 22.132812 99.089844 C 23.582031 96.382812 25.09375 93.714844 26.667969 91.082031 C 28.246094 88.453125 29.886719 85.859375 31.589844 83.308594 C 33.296875 80.757812 35.0625 78.25 36.890625 75.789062 C 38.71875 73.324219 40.605469 70.90625 42.550781 68.535156 C 44.496094 66.164062 46.5 63.839844 48.558594 61.566406 C 50.621094 59.292969 52.734375 57.074219 54.902344 54.902344 C 57.074219 52.734375 59.292969 50.621094 61.566406 48.558594 C 63.839844 46.5 66.164062 44.496094 68.535156 42.550781 C 70.90625 40.605469 73.324219 38.71875 75.789062 36.890625 C 78.25 35.0625 80.757812 33.296875 83.308594 31.589844 C 85.859375 29.886719 88.453125 28.246094 91.082031 26.667969 C 93.714844 25.09375 96.382812 23.582031 99.089844 22.132812 C 101.792969 20.6875 104.535156 19.308594 107.308594 17.996094 C 110.082031 16.6875 112.882812 15.441406 115.71875 14.269531 C 118.550781 13.09375 121.414062 11.992188 124.300781 10.957031 C 127.191406 9.925781 130.101562 8.960938 133.039062 8.070312 C 135.972656 7.179688 138.929688 6.363281 141.90625 5.617188 C 144.882812 4.871094 147.875 4.199219 150.882812 3.601562 C 153.890625 3.003906 156.914062 2.480469 159.949219 2.027344 C 162.984375 1.578125 166.027344 1.203125 169.078125 0.902344 C 172.132812 0.601562 175.191406 0.375 178.253906 0.226562 C 181.320312 0.0742188 184.386719 0 187.453125 0 C 190.519531 0 193.585938 0.0742188 196.652344 0.226562 C 199.714844 0.375 202.773438 0.601562 205.828125 0.902344 C 208.878906 1.203125 211.925781 1.578125 214.957031 2.027344 C 217.992188 2.480469 221.015625 3.003906 224.023438 3.601562 C 227.03125 4.199219 230.023438 4.871094 233 5.617188 C 235.976562 6.363281 238.933594 7.179688 241.867188 8.070312 C 244.804688 8.960938 247.714844 9.925781 250.605469 10.957031 C 253.492188 11.992188 256.355469 13.09375 259.1875 14.269531 C 262.023438 15.441406 264.828125 16.6875 267.601562 17.996094 C 270.375 19.308594 273.113281 20.6875 275.820312 22.132812 C 278.523438 23.582031 281.191406 25.09375 283.824219 26.667969 C 286.457031 28.246094 289.046875 29.886719 291.597656 31.589844 C 294.148438 33.296875 296.65625 35.0625 299.121094 36.890625 C 301.582031 38.71875 304 40.605469 306.371094 42.550781 C 308.746094 44.496094 311.066406 46.5 313.339844 48.558594 C 315.613281 50.621094 317.835938 52.734375 320.003906 54.902344 C 322.171875 57.074219 324.289062 59.292969 326.347656 61.566406 C 328.40625 63.839844 330.410156 66.164062 332.355469 68.535156 C 334.304688 70.90625 336.191406 73.324219 338.019531 75.789062 C 339.84375 78.25 341.609375 80.757812 343.316406 83.308594 C 345.019531 85.859375 346.660156 88.453125 348.238281 91.082031 C 349.816406 93.714844 351.328125 96.382812 352.773438 99.089844 C 354.21875 101.792969 355.597656 104.535156 356.910156 107.308594 C 358.222656 110.082031 359.464844 112.882812 360.636719 115.71875 C 361.8125 118.550781 362.914062 121.414062 363.949219 124.300781 C 364.984375 127.191406 365.945312 130.101562 366.835938 133.039062 C 367.726562 135.972656 368.542969 138.929688 369.289062 141.90625 C 370.035156 144.882812 370.707031 147.875 371.304688 150.882812 C 371.902344 153.890625 372.429688 156.914062 372.878906 159.949219 C 373.328125 162.984375 373.703125 166.027344 374.003906 169.078125 C 374.304688 172.132812 374.53125 175.191406 374.679688 178.253906 C 374.832031 181.320312 374.90625 184.386719 374.90625 187.453125 Z M 374.90625 187.453125 " fill-opacity="1" fill-rule="nonzero"/><path fill="#ffffff" d="M 109.023438 133.453125 L 277.980469 134.238281 C 284.195312 134.285156 289.523438 136.882812 293.230469 141.839844 C 296.941406 146.800781 298.007812 152.640625 296.292969 158.621094 L 278.027344 221.292969 C 275.617188 229.542969 268.339844 235.011719 259.765625 235.011719 L 134.195312 235.011719 C 123.71875 235.011719 129.929688 226.113281 127.242188 215.960938 L 111.988281 157.832031 C 109.8125 149.582031 94.003906 137.160156 102.953125 134.425781 C 104.992188 133.777344 107.03125 133.453125 109.023438 133.453125 Z M 109.023438 133.453125 " fill-opacity="1" fill-rule="evenodd"/><path fill="#ffffff" d="M 262.128906 244.933594 C 267.367188 244.933594 271.632812 249.195312 271.632812 254.433594 C 271.632812 259.671875 267.367188 263.9375 262.128906 263.9375 L 133.21875 263.9375 C 128.492188 263.9375 124.597656 260.554688 123.808594 256.058594 L 86.21875 111.621094 L 68.925781 111.621094 C 63.691406 111.621094 59.425781 107.355469 59.425781 102.117188 C 59.425781 96.832031 63.691406 92.566406 68.925781 92.566406 L 93.542969 92.566406 L 93.542969 92.613281 C 97.757812 92.613281 101.605469 95.441406 102.71875 99.707031 L 140.542969 244.933594 Z M 262.128906 244.933594 " fill-opacity="1" fill-rule="nonzero"/><path fill="#ffffff" d="M 173.453125 288.828125 C 173.453125 289.765625 173.363281 290.695312 173.179688 291.613281 C 172.996094 292.535156 172.726562 293.425781 172.367188 294.292969 C 172.007812 295.160156 171.570312 295.980469 171.046875 296.761719 C 170.527344 297.539062 169.9375 298.261719 169.273438 298.925781 C 168.609375 299.585938 167.890625 300.179688 167.109375 300.699219 C 166.332031 301.21875 165.507812 301.660156 164.640625 302.019531 C 163.777344 302.378906 162.882812 302.648438 161.964844 302.832031 C 161.042969 303.015625 160.117188 303.105469 159.179688 303.105469 C 158.242188 303.105469 157.3125 303.015625 156.394531 302.832031 C 155.472656 302.648438 154.582031 302.378906 153.714844 302.019531 C 152.847656 301.660156 152.027344 301.21875 151.246094 300.699219 C 150.464844 300.179688 149.746094 299.585938 149.082031 298.925781 C 148.417969 298.261719 147.828125 297.539062 147.308594 296.761719 C 146.785156 295.980469 146.347656 295.160156 145.988281 294.292969 C 145.628906 293.425781 145.359375 292.535156 145.175781 291.613281 C 144.992188 290.695312 144.902344 289.765625 144.902344 288.828125 C 144.902344 287.890625 144.992188 286.964844 145.175781 286.042969 C 145.359375 285.125 145.628906 284.230469 145.988281 283.363281 C 146.347656 282.5 146.785156 281.675781 147.308594 280.898438 C 147.828125 280.117188 148.417969 279.394531 149.082031 278.734375 C 149.746094 278.070312 150.464844 277.480469 151.246094 276.957031 C 152.027344 276.4375 152.847656 275.996094 153.714844 275.636719 C 154.582031 275.28125 155.472656 275.007812 156.394531 274.828125 C 157.3125 274.644531 158.242188 274.550781 159.179688 274.550781 C 160.117188 274.550781 161.042969 274.644531 161.964844 274.828125 C 162.882812 275.007812 163.777344 275.28125 164.640625 275.636719 C 165.507812 275.996094 166.332031 276.4375 167.109375 276.957031 C 167.890625 277.480469 168.609375 278.070312 169.273438 278.734375 C 169.9375 279.394531 170.527344 280.117188 171.046875 280.898438 C 171.570312 281.675781 172.007812 282.5 172.367188 283.363281 C 172.726562 284.230469 172.996094 285.125 173.179688 286.042969 C 173.363281 286.964844 173.453125 287.890625 173.453125 288.828125 Z M 173.453125 288.828125 " fill-opacity="1" fill-rule="nonzero"/><path fill="#ffffff" d="M 252.394531 288.828125 C 252.394531 289.765625 252.304688 290.695312 252.121094 291.613281 C 251.9375 292.535156 251.667969 293.425781 251.308594 294.292969 C 250.949219 295.160156 250.507812 295.980469 249.988281 296.761719 C 249.46875 297.539062 248.875 298.261719 248.214844 298.925781 C 247.550781 299.585938 246.828125 300.179688 246.050781 300.699219 C 245.269531 301.21875 244.449219 301.660156 243.582031 302.019531 C 242.714844 302.378906 241.824219 302.648438 240.902344 302.832031 C 239.984375 303.015625 239.054688 303.105469 238.117188 303.105469 C 237.179688 303.105469 236.253906 303.015625 235.332031 302.832031 C 234.414062 302.648438 233.519531 302.378906 232.65625 302.019531 C 231.789062 301.660156 230.964844 301.21875 230.1875 300.699219 C 229.40625 300.179688 228.6875 299.585938 228.023438 298.925781 C 227.359375 298.261719 226.769531 297.539062 226.246094 296.761719 C 225.726562 295.980469 225.285156 295.160156 224.929688 294.292969 C 224.570312 293.425781 224.296875 292.535156 224.117188 291.613281 C 223.933594 290.695312 223.839844 289.765625 223.839844 288.828125 C 223.839844 287.890625 223.933594 286.964844 224.117188 286.042969 C 224.296875 285.125 224.570312 284.230469 224.929688 283.363281 C 225.285156 282.5 225.726562 281.675781 226.246094 280.898438 C 226.769531 280.117188 227.359375 279.394531 228.023438 278.734375 C 228.6875 278.070312 229.40625 277.480469 230.1875 276.957031 C 230.964844 276.4375 231.789062 275.996094 232.65625 275.636719 C 233.519531 275.28125 234.414062 275.007812 235.332031 274.828125 C 236.253906 274.644531 237.179688 274.550781 238.117188 274.550781 C 239.054688 274.550781 239.984375 274.644531 240.902344 274.828125 C 241.824219 275.007812 242.714844 275.28125 243.582031 275.636719 C 244.449219 275.996094 245.269531 276.4375 246.050781 276.957031 C 246.828125 277.480469 247.550781 278.070312 248.214844 278.734375 C 248.875 279.394531 249.46875 280.117188 249.988281 280.898438 C 250.507812 281.675781 250.949219 282.5 251.308594 283.363281 C 251.667969 284.230469 251.9375 285.125 252.121094 286.042969 C 252.304688 286.964844 252.394531 287.890625 252.394531 288.828125 Z M 252.394531 288.828125 " fill-opacity="1" fill-rule="nonzero"/></svg>

<svg xmlns="http://www.w3.org/2000/svg" width="500" height="500" version="1.0" viewBox="0 0 375 375"><defs><clipPath id="a"><path d="M131.25 131.25h112.5v112.5h-112.5Zm0 0"/></clipPath></defs><path fill="#fff" d="M-37.5-37.5h450v450h-450z"/><path fill="#fff" d="M-37.5-37.5h450v450h-450z"/><g clip-path="url(#a)"><path fill="#fff" d="M131.25 131.25h112.5v112.5h-112.5Zm0 0"/></g><path fill="#f9943b" d="M374.906 187.453c0 3.067-.074 6.133-.226 9.2a188.395 188.395 0 0 1-1.8 18.305 187.045 187.045 0 0 1-3.59 18.042 187.185 187.185 0 0 1-8.653 26.188 183.46 183.46 0 0 1-3.727 8.414 187.826 187.826 0 0 1-18.89 31.52 187.207 187.207 0 0 1-5.665 7.25 185.745 185.745 0 0 1-12.352 13.633 185.745 185.745 0 0 1-13.632 12.35 187.207 187.207 0 0 1-7.25 5.665 194.251 194.251 0 0 1-7.523 5.296 188.78 188.78 0 0 1-15.778 9.457 190.077 190.077 0 0 1-8.218 4.137 183.46 183.46 0 0 1-8.414 3.727 186.98 186.98 0 0 1-35.165 10.668 187.045 187.045 0 0 1-36.57 3.601c-3.066 0-6.133-.074-9.2-.226a185.052 185.052 0 0 1-9.175-.676 187.045 187.045 0 0 1-27.172-4.715 187.185 187.185 0 0 1-34.597-12.379 187.856 187.856 0 0 1-24-13.594 191.157 191.157 0 0 1-7.52-5.296 188.704 188.704 0 0 1-14.223-11.672 189.096 189.096 0 0 1-6.664-6.344 189.268 189.268 0 0 1-6.343-6.664 185.541 185.541 0 0 1-6.008-6.969 191.01 191.01 0 0 1-5.66-7.25 190.167 190.167 0 0 1-5.301-7.523 188.78 188.78 0 0 1-4.922-7.774 196.725 196.725 0 0 1-4.535-8.004 190.077 190.077 0 0 1-4.137-8.218 187.817 187.817 0 0 1-3.726-8.414 186.98 186.98 0 0 1-10.668-35.165 191.939 191.939 0 0 1-1.575-9.066 188.395 188.395 0 0 1-1.8-18.305A185.361 185.361 0 0 1 0 187.453c0-3.066.074-6.133.227-9.2.148-3.062.375-6.12.675-9.175.301-3.05.676-6.094 1.125-9.129.453-3.035.977-6.058 1.575-9.066a187.185 187.185 0 0 1 14.395-43.574 187.856 187.856 0 0 1 13.593-24 187.198 187.198 0 0 1 5.3-7.52A188.077 188.077 0 0 1 48.56 61.566a192.749 192.749 0 0 1 6.343-6.664 192.749 192.749 0 0 1 6.664-6.343 188.704 188.704 0 0 1 21.743-16.97 191.455 191.455 0 0 1 7.773-4.921 187.856 187.856 0 0 1 33.219-15.71 187.185 187.185 0 0 1 26.582-7.355 191.939 191.939 0 0 1 9.066-1.576c3.035-.449 6.078-.824 9.13-1.125 3.054-.3 6.112-.527 9.175-.675 3.066-.153 6.133-.227 9.2-.227 3.066 0 6.132.074 9.198.227 3.063.148 6.121.375 9.176.675 3.05.301 6.098.676 9.129 1.125 3.035.453 6.059.977 9.066 1.575a187.185 187.185 0 0 1 35.164 10.668 187.817 187.817 0 0 1 8.415 3.726 190.077 190.077 0 0 1 8.218 4.137c2.703 1.449 5.371 2.96 8.004 4.535a188.78 188.78 0 0 1 7.774 4.922 190.167 190.167 0 0 1 7.523 5.3 191.01 191.01 0 0 1 7.25 5.66 185.541 185.541 0 0 1 6.969 6.009 189.268 189.268 0 0 1 6.664 6.343 189.096 189.096 0 0 1 6.344 6.664 188.704 188.704 0 0 1 16.968 21.743 191.455 191.455 0 0 1 4.922 7.773 187.856 187.856 0 0 1 15.71 33.219 187.185 187.185 0 0 1 7.355 26.582 187.045 187.045 0 0 1 3.603 36.57Zm0 0"/><path fill="#fff" fill-rule="evenodd" d="m109.023 133.453 168.957.785c6.215.047 11.543 2.645 15.25 7.602 3.711 4.96 4.778 10.8 3.063 16.781l-18.266 62.672c-2.41 8.25-9.687 13.719-18.261 13.719h-125.57c-10.477 0-4.266-8.899-6.954-19.051l-15.254-58.129c-2.175-8.25-17.984-20.672-9.035-23.406 2.04-.649 4.078-.973 6.07-.973Zm0 0"/><path fill="#fff" d="M262.129 244.934c5.238 0 9.504 4.261 9.504 9.5 0 5.238-4.266 9.504-9.504 9.504h-128.91a9.523 9.523 0 0 1-9.41-7.88l-37.59-144.437H68.926c-5.235 0-9.5-4.266-9.5-9.504 0-5.285 4.265-9.55 9.5-9.55h24.617v.046c4.215 0 8.062 2.828 9.176 7.094l37.824 145.227ZM173.453 288.828a14.232 14.232 0 0 1-2.406 7.934c-.52.777-1.11 1.5-1.774 2.164a14.29 14.29 0 0 1-4.632 3.094 14.194 14.194 0 0 1-5.461 1.085 14.232 14.232 0 0 1-7.934-2.406 14.29 14.29 0 0 1-2.164-1.773 14.248 14.248 0 0 1-1.773-2.164 14.232 14.232 0 0 1-2.406-7.934 14.204 14.204 0 0 1 1.085-5.465c.36-.863.797-1.687 1.32-2.465a14.315 14.315 0 0 1 6.406-5.262 14.22 14.22 0 0 1 2.68-.808 14.179 14.179 0 0 1 5.57 0 14.183 14.183 0 0 1 5.145 2.129 14.315 14.315 0 0 1 5.258 6.406 14.32 14.32 0 0 1 1.086 5.465ZM252.395 288.828a14.232 14.232 0 0 1-2.406 7.934c-.52.777-1.114 1.5-1.774 2.164a14.409 14.409 0 0 1-4.633 3.094 14.232 14.232 0 0 1-5.465 1.085 14.204 14.204 0 0 1-5.46-1.085 14.29 14.29 0 0 1-6.41-5.258c-.52-.782-.962-1.602-1.317-2.469a13.95 13.95 0 0 1-.813-2.68 14.179 14.179 0 0 1 0-5.57c.18-.918.453-1.813.813-2.68.355-.863.797-1.687 1.316-2.465a14.315 14.315 0 0 1 6.41-5.262 14.183 14.183 0 0 1 2.676-.808 14.179 14.179 0 0 1 5.57 0c.922.18 1.813.453 2.68.809.867.36 1.688.8 2.469 1.32a14.51 14.51 0 0 1 2.164 1.777 14.373 14.373 0 0 1 3.094 4.629 14.32 14.32 0 0 1 1.086 5.465Zm0 0"/></svg>
